icons/fill-new-drink-milk-tea.svg

<svg xmlns="http://www.w3.org/2000/svg" width="32px" height="32px" viewBox="0 0 32 32" version="1.1">
    <title>fill-new-drink-milk-tea</title>
    <g id="fill-new-drink-milk-tea" stroke-width="1" fill-rule="evenodd">
        <path d="M20,1 C20.5522847,1 21,1.44771525 21,2 C21,2.55228475 20.5522847,3 20,3 L16,3 C15.4477153,3 15,3.44771525 15,4 L15,6 L26,6 C27.1045695,6 28,6.8954305 28,8 C28,9.1045695 27.1045695,10 26,10 L6,10 C4.8954305,10 4,9.1045695 4,8 C4,6.8954305 4.8954305,6 6,6 L13,6 L13,4 C13,2.34314575 14.3431458,1 16,1 L20,1 Z M25.425,12 L24.0693908,30.0747899 C24.0302553,30.5965961 23.5954631,31 23.0721914,31 L8.92780856,31 C8.40453687,31 7.96974471,30.5965961 7.93060925,30.0747899 L6.576,12 L25.425,12 Z M23,16 C20.2385763,16 18,18.2385763 18,21 C18,23.5485583 19.9067551,25.6517701 22.37151,25.96088 L23.1197709,16.0014064 L23,16 Z" id="&#24418;&#29366;" fill-rule="nonzero" />
    </g>
</svg>

<svg xmlns="http://www.w3.org/2000/svg" viewBox="0 0 32 32"><path fill="currentColor" d="M20 1a1 1 0 0 1 0 2h-4a1 1 0 0 0-1 1v2h11a2 2 0 1 1 0 4H6a2 2 0 1 1 0-4h7V4a3 3 0 0 1 3-3zm5.425 11-1.356 18.075a1 1 0 0 1-.997.925H8.928a1 1 0 0 1-.997-.925L6.576 12zM23 16a5 5 0 0 0-.628 9.96l.748-9.959z"/></svg>
